X:64
T:Reel Eug\`ene
M:4/4
L:1/8
R:reel
K:Bmin
B2Bc dcB2 | e2ef gece | f2fg fede | fbbf bfdc |
B2Bc dcB2 | e2ef gece | f2fg fedc |1 B4 F4 :|2 B4 A4 |:
f2fe d2dB | AAdf b2f2 | a2ag e2c2 | Aceg f2e2|
f2fe d2dB | AAdf b2f2 | a2ag egec |1 dfec d3e :|2 dfec d4 |]

